X:1
T:Carillions, The
C:Karen Tweed
S:Solas, &quot;The Words That Remain&quot;
Z:Jack Gilder
M:6/8
L:1/8
R:jig
K:F#min
FAB c2 f|fec efe|cdc ~B3|AGA BGE|
FAB c2 f|fec efe|cdc ~B3|1AGE F2 E:|2AGE F2 g||
agf gfe|Bce c2 B|AGE FAB|cfg efg|
agf gfe|Bce c2 B|AGE FGA|Bce f2 g|
agf gfe|Bce c2 B|AGE FAB|cfg efg|
agf g2g|fec Be^d|cAF GEC|B,CE F2E||
